icons/fill-new-people-setting-gear.svg

<svg xmlns="http://www.w3.org/2000/svg" width="32px" height="32px" viewBox="0 0 32 32" version="1.1">
    <title>fill-new-people-setting-gear</title>
    <g id="fill-new-people-setting-gear" stroke-width="1" fill-rule="evenodd">
        <path d="M16,16 C19.8659932,16 23,12.8659932 23,9 C23,5.13400675 19.8659932,2 16,2 C12.1340068,2 9,5.13400675 9,9 C9,12.8659932 12.1340068,16 16,16 Z M23.5,16.2886751 L28.5621778,19.2113249 C28.8715789,19.3899577 29.0621778,19.7200847 29.0621778,20.0773503 L29.0621778,25.9226497 C29.0621778,26.2799153 28.8715789,26.6100423 28.5621778,26.7886751 L23.5,29.7113249 C23.1905989,29.8899577 22.8094011,29.8899577 22.5,29.7113249 L17.4378222,26.7886751 C17.1284211,26.6100423 16.9378222,26.2799153 16.9378222,25.9226497 L16.9378222,20.0773503 C16.9378222,19.7200847 17.1284211,19.3899577 17.4378222,19.2113249 L22.5,16.2886751 C22.8094011,16.1100423 23.1905989,16.1100423 23.5,16.2886751 Z M16.071,17.9997005 L15.7057714,18.2113249 C15.3963703,18.3899577 15.2057714,18.7200847 15.2057714,19.0773503 L15.2057714,26.9226497 C15.2057714,27.2799153 15.3963703,27.6100423 15.7057714,27.7886751 L17.804,28.9997005 L5,29 C4.44771525,29 4,28.5522847 4,28 L4,23 C4,20.2385763 6.23857625,18 9,18 L16.071,17.9997005 Z M23,21 C21.8954305,21 21,21.8954305 21,23 C21,24.1045695 21.8954305,25 23,25 C24.1045695,25 25,24.1045695 25,23 C25,21.8954305 24.1045695,21 23,21 Z" id="&#24418;&#29366;" />
    </g>
</svg>

<svg xmlns="http://www.w3.org/2000/svg" viewBox="0 0 32 32"><path fill="currentColor" d="M16 16a7 7 0 1 0 0-14 7 7 0 0 0 0 14m7.5.289 5.062 2.922a1 1 0 0 1 .5.866v5.846a1 1 0 0 1-.5.866L23.5 29.71a1 1 0 0 1-1 0l-5.062-2.922a1 1 0 0 1-.5-.866v-5.846a1 1 0 0 1 .5-.866L22.5 16.29a1 1 0 0 1 1 0m-7.429 1.71-.365.212a1 1 0 0 0-.5.866v7.846a1 1 0 0 0 .5.866l2.098 1.21L5 29a1 1 0 0 1-1-1v-5a5 5 0 0 1 5-5zM23 21a2 2 0 1 0 0 4 2 2 0 0 0 0-4"/></svg>
